admin/Enpal_Logo.svg

<?xml version="1.0" encoding="UTF-8" standalone="no"?>
<svg width="294.86719" height="86.765625" viewBox="0 0 293.8843 86.765625" version="1.1" id="svg2" xmlns="http://www.w3.org/2000/svg" xmlns:svg="http://www.w3.org/2000/svg">
  <defs id="defs2" />
  <g id="surface1" style="stroke:white;stroke-opacity:1" transform="translate(-2.566406,-2.117188)">
    <path style="fill:#052342;fill-opacity:1;fill-rule:nonzero;stroke:white;stroke-opacity:1" d="m 226.58984,2.617188 v 52.144531 c 0,4.820312 1.08594,8.316406 3.26563,10.503906 2.17187,2.183594 5.77344,3.269531 10.77344,3.269531 2.05468,0 3.80078,-0.121094 5.24218,-0.378906 1.44141,-0.257812 2.92969,-0.675781 4.47266,-1.257812 v -10.5 c -1.35156,0.449218 -2.88281,0.671874 -4.61719,0.671874 -1.27344,0 -2.20312,-0.269531 -2.78515,-0.816406 -0.57032,-0.550781 -0.85938,-1.558594 -0.85938,-3.039062 V 2.617188 Z M 2.566406,5.507812 v 62.0625 H 48.242188 V 55.625 H 18.046875 V 42.613281 H 44.695312 V 30.464844 H 18.054688 V 17.457031 H 48.25 V 5.507812 Z m 84.535156,15.421876 c -3.019531,0 -5.949218,0.46875 -8.800781,1.402343 -2.851562,0.929688 -5.269531,2.105469 -7.257812,3.519531 L 70.5625,21.890625 H 56.113281 V 67.582031 H 71.601562 V 36.449219 c 1.152344,-1.152344 2.59375,-2.117188 4.328126,-2.890625 1.734374,-0.773438 3.433593,-1.152344 5.097656,-1.152344 2.753906,0 4.699218,0.546875 5.816406,1.632812 1.128906,1.089844 1.691406,2.925782 1.691406,5.492188 V 67.570312 H 104.02344 V 38.277344 c 0,-5.917969 -1.35547,-10.289063 -4.082034,-13.113282 -2.730468,-2.824218 -7,-4.234374 -12.839844,-4.234374 z m 55.300778,0 c -5.5664,0 -10.35547,1.648437 -14.32422,4.921874 l -0.77343,-3.960937 h -13.47656 v 66.492187 h 15.49218 V 65.542969 c 3.39844,1.996093 7.50391,2.992187 12.3125,2.992187 6.85547,0 12.21094,-2.09375 16.0586,-6.308594 3.84765,-4.214843 5.76953,-10.367187 5.76953,-18.460937 0,-15.226563 -7.01172,-22.835937 -21.0586,-22.835937 z m 51.45703,0.01172 c -3.46875,0 -6.83203,0.277344 -10.09765,0.863282 -3.26563,0.582031 -6.0625,1.320312 -8.36719,2.21875 v 10.015624 c 5,-1.601562 10.09766,-2.410156 15.28906,-2.410156 4.17188,0 7.03125,0.484375 8.60938,1.449219 1.57812,0.964844 2.35937,2.632813 2.35937,5.007813 v 1.054687 h -12.6914 c -6.23047,0 -10.96094,1.320313 -14.19141,3.957031 -3.23437,2.632813 -4.85547,6.332032 -4.85547,11.082032 0,4.617187 1.51953,8.171874 4.5625,10.648437 3.04297,2.476563 6.90235,3.707031 11.58985,3.730469 7.17968,0 12.53515,-1.601563 16.05859,-4.820313 l 0.76953,3.855469 h 13.56641 V 39.0625 c 0,-6.164062 -1.95703,-10.722656 -5.8711,-13.683594 -3.90234,-2.957031 -9.48437,-4.4375 -16.73047,-4.4375 z m -55.88281,11.351563 c 3.46485,0 5.94922,0.804687 7.45703,2.410156 1.51172,1.613281 2.26172,4.539063 2.26172,8.773437 0,4.503907 -0.85156,7.914063 -2.55078,10.222657 -1.70312,2.308593 -4.18359,3.472656 -7.46094,3.460937 -1.78906,0 -3.3125,-0.234375 -4.5625,-0.71875 -1.2539,-0.492187 -2.51562,-1.207031 -3.80078,-2.171875 V 35.765625 c 2.50391,-2.316406 5.39063,-3.472656 8.65625,-3.472656 z m 52.70703,15.8125 h 10.96094 V 54.5625 C 199.14844,57.519531 195.58203,59 190.97266,59 c -4.74219,0 -7.11329,-1.804688 -7.11329,-5.402344 0,-1.859375 0.5586,-3.25 1.67969,-4.148437 1.11719,-0.894531 2.83985,-1.34375 5.14453,-1.34375 z m 0,0" id="path1" />
    <path style="fill:#ffb000;fill-opacity:1;fill-rule:nonzero;stroke:white;stroke-opacity:1" d="m 296.43359,58.695312 c 0,-6.472656 -5.23828,-11.722656 -11.69922,-11.722656 -6.46093,0 -11.69921,5.25 -11.69921,11.722656 0,6.476563 5.23828,11.722657 11.69921,11.722657 6.46094,0 11.69922,-5.246094 11.69922,-11.722657 z m 0,0" id="path2" />
  </g>
</svg>

<?xml version="1.0" encoding="UTF-8"?>
<svg xmlns="http://www.w3.org/2000/svg" xmlns:xlink="http://www.w3.org/1999/xlink" width="300px" height="91px" viewBox="0 0 299 91" version="1.1">
<g id="surface1">
<path style=" stroke:none;fill-rule:nonzero;fill:rgb(2.745098%,14.509805%,26.274511%);fill-opacity:1;" d="M 226.589844 2.617188 L 226.589844 54.761719 C 226.589844 59.582031 227.675781 63.078125 229.855469 65.265625 C 232.027344 67.449219 235.628906 68.535156 240.628906 68.535156 C 242.683594 68.535156 244.429688 68.414062 245.871094 68.15625 C 247.3125 67.898438 248.800781 67.480469 250.34375 66.898438 L 250.34375 56.398438 C 248.992188 56.847656 247.460938 57.070312 245.726562 57.070312 C 244.453125 57.070312 243.523438 56.800781 242.941406 56.253906 C 242.371094 55.703125 242.082031 54.695312 242.082031 53.214844 L 242.082031 2.617188 Z M 2.566406 5.507812 L 2.566406 67.570312 L 48.242188 67.570312 L 48.242188 55.625 L 18.046875 55.625 L 18.046875 42.613281 L 44.695312 42.613281 L 44.695312 30.464844 L 18.054688 30.464844 L 18.054688 17.457031 L 48.25 17.457031 L 48.25 5.507812 Z M 87.101562 20.929688 C 84.082031 20.929688 81.152344 21.398438 78.300781 22.332031 C 75.449219 23.261719 73.03125 24.4375 71.042969 25.851562 L 70.5625 21.890625 L 56.113281 21.890625 L 56.113281 67.582031 L 71.601562 67.582031 L 71.601562 36.449219 C 72.753906 35.296875 74.195312 34.332031 75.929688 33.558594 C 77.664062 32.785156 79.363281 32.40625 81.027344 32.40625 C 83.78125 32.40625 85.726562 32.953125 86.84375 34.039062 C 87.972656 35.128906 88.535156 36.964844 88.535156 39.53125 L 88.535156 67.570312 L 104.023438 67.570312 L 104.023438 38.277344 C 104.023438 32.359375 102.667969 27.988281 99.941406 25.164062 C 97.210938 22.339844 92.941406 20.929688 87.101562 20.929688 Z M 142.402344 20.929688 C 136.835938 20.929688 132.046875 22.578125 128.078125 25.851562 L 127.304688 21.890625 L 113.828125 21.890625 L 113.828125 88.382812 L 129.320312 88.382812 L 129.320312 65.542969 C 132.71875 67.539062 136.824219 68.535156 141.632812 68.535156 C 148.488281 68.535156 153.84375 66.441406 157.691406 62.226562 C 161.539062 58.011719 163.460938 51.859375 163.460938 43.765625 C 163.460938 28.539062 156.449219 20.929688 142.402344 20.929688 Z M 193.859375 20.941406 C 190.390625 20.941406 187.027344 21.21875 183.761719 21.804688 C 180.496094 22.386719 177.699219 23.125 175.394531 24.023438 L 175.394531 34.039062 C 180.394531 32.4375 185.492188 31.628906 190.683594 31.628906 C 194.855469 31.628906 197.714844 32.113281 199.292969 33.078125 C 200.871094 34.042969 201.652344 35.710938 201.652344 38.085938 L 201.652344 39.140625 L 188.960938 39.140625 C 182.730469 39.140625 178 40.460938 174.769531 43.097656 C 171.535156 45.730469 169.914062 49.429688 169.914062 54.179688 C 169.914062 58.796875 171.433594 62.351562 174.476562 64.828125 C 177.519531 67.304688 181.378906 68.535156 186.066406 68.558594 C 193.246094 68.558594 198.601562 66.957031 202.125 63.738281 L 202.894531 67.59375 L 216.460938 67.59375 L 216.460938 39.0625 C 216.460938 32.898438 214.503906 28.339844 210.589844 25.378906 C 206.6875 22.421875 201.105469 20.941406 193.859375 20.941406 Z M 137.976562 32.292969 C 141.441406 32.292969 143.925781 33.097656 145.433594 34.703125 C 146.945312 36.316406 147.695312 39.242188 147.695312 43.476562 C 147.695312 47.980469 146.84375 51.390625 145.144531 53.699219 C 143.441406 56.007812 140.960938 57.171875 137.683594 57.160156 C 135.894531 57.160156 134.371094 56.925781 133.121094 56.441406 C 131.867188 55.949219 130.605469 55.234375 129.320312 54.269531 L 129.320312 35.765625 C 131.824219 33.449219 134.710938 32.292969 137.976562 32.292969 Z M 190.683594 48.105469 L 201.644531 48.105469 L 201.644531 54.5625 C 199.148438 57.519531 195.582031 59 190.972656 59 C 186.230469 59 183.859375 57.195312 183.859375 53.597656 C 183.859375 51.738281 184.417969 50.347656 185.539062 49.449219 C 186.65625 48.554688 188.378906 48.105469 190.683594 48.105469 Z M 190.683594 48.105469 "/>
<path style=" stroke:none;fill-rule:nonzero;fill:rgb(100%,69.01961%,0%);fill-opacity:1;" d="M 296.433594 58.695312 C 296.433594 52.222656 291.195312 46.972656 284.734375 46.972656 C 278.273438 46.972656 273.035156 52.222656 273.035156 58.695312 C 273.035156 65.171875 278.273438 70.417969 284.734375 70.417969 C 291.195312 70.417969 296.433594 65.171875 296.433594 58.695312 Z M 296.433594 58.695312 "/>
</g>
</svg>
